Papirus/64x64/apps/vieb.svg

<svg width="64" height="64" version="1.1" xmlns="http://www.w3.org/2000/svg">
 <g transform="translate(-3.2500899e-7,-5.9e-5)">
  <path d="m31.999129 3.000059c-1.571499 0-3.144048 0.5857443-4.318781 1.7604495l-23.919924 23.92259c-2.3494678 2.349408-2.3461349 6.281166 0.00343 8.630576l23.919924 23.922591c2.349468 2.349411 6.28473 2.352743 8.634198 0.0034l23.919924-23.92259c2.349467-2.34941 2.349468-6.284534 0-8.633943l-23.919987-23.922624c-1.174733-1.174705-2.747283-1.7604495-4.318783-1.7604495z" style="opacity:.2"/>
  <path d="m31.999129 2.0000277c-1.571499 0-3.144048 0.5857443-4.318781 1.7604495l-23.919924 23.922591c-2.3494678 2.349408-2.3461349 6.281166 0.00343 8.630576l23.919924 23.922591c2.349468 2.349411 6.28473 2.352743 8.634198 0.0034l23.919924-23.92259c2.349467-2.34941 2.349468-6.284534 0-8.633943l-23.919987-23.922625c-1.174733-1.174705-2.747283-1.7604495-4.318783-1.7604495z" style="fill:#a42a2a"/>
  <path d="M 32,2 C 30.428501,2 28.85442,2.5850604 27.679688,3.7597656 L 3.7597656,27.683594 C 2.460141,28.983185 1.8843413,30.765757 2.0234375,32.498047 2.1343057,31.098695 2.7099225,29.73341 3.7597656,28.683594 L 27.679688,4.7597656 C 28.85442,3.5850604 30.428501,3 32,3 c 1.5715,0 3.143626,0.5850606 4.318359,1.7597656 L 60.238281,28.683594 c 1.049843,1.049817 1.626669,2.416311 1.738281,3.816406 0.138169,-1.73321 -0.438656,-3.516814 -1.738281,-4.816406 L 36.318359,3.7597656 C 35.143626,2.5850606 33.5715,2 32,2 Z" style="fill:#ffffff;opacity:.2"/>
  <path d="m9 11.001196c-1.662 0-3 1.338-3 3s1.338 3 3 3h1v34a6.0006 6.0006 0 0 0 10.193359 4.291016l39.22461-38.332032c1.460633-0.204055 2.582031-1.440372 2.582031-2.958984 0-1.662-1.338-3-3-3h-14c-1.662 0-3 1.338-3 3 0 0.888703 0.389896 1.676215 1 2.224609l-21 20.523438v-19.748047h1c1.662 0 3-1.338 3-3s-1.338-3-3-3z" style="opacity:.2"/>
  <path d="m9 10.001165c-1.662 0-3 1.338-3 3s1.338 3 3 3h1v34a6.0006 6.0006 0 0 0 10.193359 4.291016l39.22461-38.332032c1.460633-0.204055 2.582031-1.440372 2.582031-2.958984 0-1.662-1.338-3-3-3h-14c-1.662 0-3 1.338-3 3 0 0.888703 0.389896 1.676215 1 2.224609l-21 20.523438v-19.748047h1c1.662 0 3-1.338 3-3s-1.338-3-3-3z" style="fill:#e4e4e4"/>
  <path d="m9 10.001953c-1.662 0-3 1.338-3 3 0 0.171588 0.023374 0.336435 0.050781 0.5 0.2374194-1.4215 1.4582602-2.5 2.9492188-2.5h14c1.490959 0 2.711799 1.0785 2.949219 2.5 0.02741-0.163565 0.05078-0.328412 0.05078-0.5 0-1.662-1.338-3-3-3zm36 0c-1.662 0-3 1.338-3 3 0 0.164303 0.02715 0.320049 0.05273 0.476563 0.246729-1.410168 1.464315-2.476563 2.94727-2.476563h14c1.498366 0 2.724458 1.089498 2.953125 2.521485 0.029696-0.169426 0.046875-0.343048 0.046875-0.521485 0-1.662-1.338-3-3-3zm-2.466797 5.681641-20.533203 20.066406v1l21-20.523438c-0.17785-0.15986-0.330576-0.345885-0.466797-0.542968z" style="fill:#ffffff;opacity:.2"/>
 </g>
</svg>

<svg xmlns="http://www.w3.org/2000/svg" width="64" height="64" version="1">
 <path style="opacity:0.2" d="M 31.999,3.0001 C 30.428,3.0001 28.855,3.5858 27.68,4.7605 L 3.7604,28.683 C 1.411,31.033 1.4143,34.964 3.7639,37.314 L 27.684,61.236 C 30.033,63.586 33.969,63.589 36.318,61.24 L 60.238,37.317 C 62.587,34.968 62.587,31.033 60.238,28.683 L 36.318,4.7605 C 35.143,3.5858 33.571,3.0001 31.999,3.0001 Z"/>
 <path style="fill:#a42a2a" d="M 31.999,2 C 30.428,2 28.855,2.5858 27.68,3.7605 L 3.7604,27.683 C 1.411,30.032 1.4143,33.964 3.7639,36.314 L 27.684,60.236 C 30.033,62.586 33.969,62.589 36.318,60.24 L 60.238,36.317 C 62.587,33.968 62.587,30.033 60.238,27.683 L 36.318,3.7605 C 35.143,2.5858 33.571,2 31.999,2 Z"/>
 <path style="opacity:0.2;fill:#ffffff" d="M 32,2 C 30.429,2 28.854,2.5851 27.68,3.7598 L 3.7598,27.684 C 2.4601,28.983 1.8843,30.766 2.0234,32.498 2.1343,31.099 2.7099,29.733 3.7598,28.684 L 27.68,4.7598 C 28.854,3.5851 30.429,3 32,3 33.572,3 35.144,3.5851 36.318,4.7598 L 60.238,28.684 C 61.288,29.733 61.865,31.1 61.977,32.5 62.115,30.767 61.538,28.983 60.238,27.684 L 36.318,3.7598 C 35.144,2.5851 33.572,2 32,2 Z"/>
 <path style="opacity:0.2" d="M 9,11 C 7.338,11 6,12.338 6,14 6,15.662 7.338,17 9,17 H 10 V 51 A 6.0006,6.0006 0 0 0 20.193,55.291 L 59.418,16.959 C 60.879,16.755 62,15.519 62,14 62,12.338 60.662,11 59,11 H 45 C 43.338,11 42,12.338 42,14 42,14.889 42.39,15.676 43,16.225 L 22,36.748 V 17 H 23 C 24.662,17 26,15.662 26,14 26,12.338 24.662,11 23,11 Z"/>
 <path style="fill:#e4e4e4" d="M 9,10 C 7.338,10 6,11.338 6,13 6,14.662 7.338,16 9,16 H 10 V 50 A 6.0006,6.0006 0 0 0 20.193,54.291 L 59.418,15.959 C 60.879,15.755 62,14.519 62,13 62,11.338 60.662,10 59,10 H 45 C 43.338,10 42,11.338 42,13 42,13.889 42.39,14.676 43,15.225 L 22,35.748 V 16 H 23 C 24.662,16 26,14.662 26,13 26,11.338 24.662,10 23,10 Z"/>
 <path style="fill:#ffffff;opacity:0.1" d="M 9 10 C 7.338 10 6 11.338 6 13 C 6 13.172 6.0234 13.336 6.0508 13.5 C 6.2888 12.079 7.5096 11 9 11 L 23 11 C 24.49 11 25.711 12.079 25.949 13.5 C 25.977 13.336 26 13.172 26 13 C 26 11.338 24.662 10 23 10 L 9 10 z M 45 10 C 43.338 10 42 11.338 42 13 C 42 13.165 42.027 13.321 42.053 13.479 C 42.299 12.068 43.517 11 45 11 L 59 11 C 60.498 11 61.724 12.09 61.953 13.521 C 61.983 13.352 62 13.178 62 13 C 62 11.338 60.662 10 59 10 L 45 10 z M 42.533 15.682 L 22 35.748 L 22 36.748 L 43 16.225 C 42.822 16.064 42.67 15.879 42.533 15.682 z"/>
</svg>
